!!!OTL: 150. Freylekhs
!!!Genre:	Freylekhs
!!!Mode:	Major
!!!Listening/dance:	dance
!!!:	*g:dor
!!!One_Mode:	no
**kern
*thru
*I"P1
*clefG2
*k[f#]
*>A
*G:
*M2/4
!LO:TX:a:i:t=G-major
8a
=1
8bL
8gJ
32bLLL
32a
32b
32aJJ
8gJ
=2
8bL
8gJ
32bLLL
32a
32b
32aJJ
8gJ
=3
16bLL
16g
16b
16ddJJ
16ccLL
16b
16cc
16eeJJ
=4
24ddLL
24ee
24ddJ
8ggJ
24ddLL
24ee
24ddJ
8ggJ
=5
8bL
8gJ
32bLLL
32a
32b
32aJJ
8gJ
=6
16bLL
16g
16b
16gJJ
32bLLL
32a
32b
32aJJ
8gJ
=7
8bL
8ddJ
16ddLL
16cc
16b
16aJJ
=
!LO:TX:b:Bi:t=Fine
4g
8r
*>A
=8:|!
!LO:TX:a:i:t=G-major
8a
=1
8bL
8gJ
32bLLL
32a
32b
32aJJ
8gJ
=2
8bL
8gJ
32bLLL
32a
32b
32aJJ
8gJ
=3
16bLL
16g
16b
16ddJJ
16ccLL
16b
16cc
16eeJJ
=4
24ddLL
24ee
24ddJ
8ggJ
24ddLL
24ee
24ddJ
8ggJ
=5
8bL
8gJ
32bLLL
32a
32b
32aJJ
8gJ
=6
16bLL
16g
16b
16gJJ
32bLLL
32a
32b
32aJJ
8gJ
=7
8bL
8ddJ
16ddLL
16cc
16b
16aJJ
=
!LO:TX:b:Bi:t=Fine
4g
8r
*>fanfare
=8:|!
*k[b-]
!!!Begin-Modulation
*-
